X:1
T:Title
%%score { ( 1 3 ) | 2 }
L:1/8
M:3/4
K:C
V:1 treble nm="Grand Piano"
V:3 treble 
V:2 bass 
V:1
 z2 z2[Q:1/4=100] [EG]2 | [EG]3 [Ec] [_EB][EA] | [EG]4 [Ec]2 | [DFB]3 [CFA] [B,FG][G,DF] | E4 E2 | %5
 E3 F GE | FA G2 [EG]2 | [FB]3 [FB] [FA][FB] |[M:2/4] [Ec]4 |[M:1/4] [EG]2 |[M:3/4] [Ec]3 E FG | %11
 A4 A2 | d3 c BA | B4 [B,FG]2 | [EG]3 [EA] [EB][Ec] | dc z E A2 | G3 A Bd |[M:2/4] [Ec]4 |] %18
V:2
 z2 z2 [C,G,]2 | [C,G,]3 [C,G,] [C,^F,][C,F,] | [C,G,]4 [C,G,]2 | G,,3 G,, G,,G,, | %4
 [C,G,C]4 [C,G,C]2 | [C,G,C]3 [D,G,C] [E,G,C][C,G,C] | [C,A,C][C,F,C] [C,E,C]2 [C,G,]2 | %7
 [G,,G,]3 [G,,G,] [G,,G,][G,,G,] |[M:2/4] [C,G,]4 |[M:1/4] [C,G,]2 | %10
[M:3/4] [C,G,]3 [C,_B,C] [D,B,C][E,B,C] | [F,A,C]4 [E,G,^C]2 | [D,^F,D]3 [D,F,D] [D,G,D][D,CD] | %13
 [G,B,D]4 [G,,G,]2 | [C,C]3 [C,C] [C,G,][C,G,] | [F,A,F][F,A,F] .[F,CF]2 [^F,C_E]2 | %16
 [G,CE]3 [G,CE] [G,DF][G,B,F] |[M:2/4][K:bass] [C,G,C]4 |] %18
V:3
 x6 | x6 | x6 | x6 | x6 | x6 | x6 | x6 |[M:2/4] x4 |[M:1/4] x2 |[M:3/4] x6 | x6 | x6 | x6 | x6 | %15
 z2 A2 z2 | x6 |[M:2/4] x4 |] %18

